assets/railway/mono.svg

<svg viewBox="0 0 24 24" xmlns="http://www.w3.org/2000/svg"><path d="m.113 10.27a13.026 13.026 0 0 0 -.113 1.21h18.23c-.064-.125-.15-.237-.235-.347-3.117-4.027-4.793-3.677-7.19-3.78-.8-.034-1.34-.048-4.524-.048-1.704 0-3.555.005-5.358.01-.234.63-.459 1.24-.567 1.737h9.342v1.216h-9.585zm18.26 2.426h-18.364c.02.326.05.645.094.961h16.955c.754 0 1.179-.429 1.315-.96zm-17.318 4.28s2.81 6.902 10.93 7.024c4.855 0 9.027-2.883 10.92-7.024h-21.849zm10.933-16.976c-4.488 0-8.395 2.466-10.457 6.108l4.75-.005v-.002c3.71 0 3.849.016 4.573.047l.448.016c1.563.052 3.485.22 4.996 1.364.82.621 2.007 1.99 2.712 2.965.654.902.842 1.94.396 2.934-.408.914-1.289 1.458-2.353 1.458h-16.662s.099.42.249.886h22.748a12.026 12.026 0 0 0 .612-3.766c0-6.628-5.379-12.005-12.012-12.005z"/></svg>

<svg xmlns="http://www.w3.org/2000/svg" viewBox="0 0 24 24"><path d="M.113 10.27A13 13 0 0 0 0 11.48h18.23a2.3 2.3 0 0 0-.235-.347c-3.117-4.027-4.793-3.677-7.19-3.78-.8-.034-1.34-.048-4.524-.048-1.704 0-3.555.005-5.358.01-.234.63-.459 1.24-.567 1.737h9.342v1.216H.113zm18.26 2.426H.009q.029.488.094.961h16.955c.754 0 1.179-.429 1.315-.96zm-17.318 4.28s2.81 6.902 10.93 7.024c4.855 0 9.027-2.883 10.92-7.024H1.056zM11.988 0C7.5 0 3.593 2.466 1.531 6.108l4.75-.005v-.002c3.71 0 3.849.016 4.573.047l.448.016c1.563.052 3.485.22 4.996 1.364.82.621 2.007 1.99 2.712 2.965.654.902.842 1.94.396 2.934-.408.914-1.289 1.458-2.353 1.458H.391s.099.42.249.886h22.748A12 12 0 0 0 24 12.005C24 5.377 18.621 0 11.988 0"/></svg>
